X:1
T:James Gibb editions
T:The day, O Lord,, is spent - Barnby
%%score ( 1 2 ) ( 3 4 )
L:1/8
Q:1/4=72
M:4/4
K:F
V:1 treble nm="Midi_74"
V:2 treble 
V:3 bass nm="Midi_74"
V:4 bass 
V:1
"^Emmaus (S.M.)""^The day, O Lord, is spent""^Joseph Barnby\n(1838-96)" F2 | F2 G2 A2 B2 | c6 || %3
 c2 | _e2 d2 c2 c2 | c6 ||[M:4/4] d2 | B2 c2 A2 B2 | A2 G2 F2 || G2 | E2 F2 F2 E2 | F6 || B4 A4 |] %13
V:2
 C2 | C2 E2 F2 F2 | E6 || F2 | G2 F2 F2 !courtesy!=E2 | F6 ||[M:4/4] F2 | F2 E2 F2 E2 | %8
 ^C2 E2 D2 || D2 | C2 C2 C2 C2 | C6 || F4 F4 |] %13
V:3
 A,2 | A,2 C2 C2 B,2 | G,6 || A,2 | B,2 B,A, G,2 G,2 | A,6 ||[M:4/4] B,2 | B,2 G,2 F,2 G,F, | %8
 E,2 A,2 A,2 || B,2 | B,2 A,2 G,2 G,2 | A,6 || D4 C4 |] %13
V:4
 F,2 | F,2 C,2 F,2 D,2 | C,6 || F,2 | _E,2 B,,2 C,2 C,2 | F,6 ||[M:4/4] B,,2 | D,2 C,2 F,2 G,,2 | %8
 A,,2 ^C,2 D,2 || B,,2 | C,2 C,2 C,2 C,2 | F,6 || B,,4 F,4 |] %13

